src/images/logo-selectel.svg

<?xml version="1.0" encoding="utf-8"?>
<svg width="200" height="43" viewBox="0 0 200 43" xmlns="http://www.w3.org/2000/svg">
  <title>selectel_logo_web</title>
  <defs>
    <path id="a" d="M0 0.0594563735L111.968583 0.0594563735 111.968583 23.9410997 0 23.9410997z"/>
  </defs>
  <g fill="none" fill-rule="evenodd" transform="matrix(1.786398, 0, 0, 1.786398, -0.000018, -0.046744)">
    <path d="M71.3103009,5.95048106 C70.5823524,5.95048106 69.9171093,5.98710618 69.3328257,6.05916731 C66.9180926,6.3563699 65.0598419,7.71403637 63.9595558,9.98408071 C62.9568794,12.0541931 62.8788222,14.1862194 62.8788222,14.7902961 C62.8788222,15.3912019 62.9568794,17.5117332 63.962229,19.5771684 C65.0624387,21.8367484 66.9187037,23.2005983 69.3301526,23.5218213 C69.8403505,23.5895223 70.445714,23.624007 71.1296695,23.624007 C73.2209463,23.624007 75.4306837,23.3011192 75.4523747,23.2977104 L75.7002943,23.2610853 L75.7002943,19.4989238 C75.7002943,19.4989238 73.2786872,19.6684141 72.0617736,19.6684141 C70.5501213,19.6684141 69.8975568,19.5684481 69.6162605,19.4842579 C67.9123675,18.9753113 67.7412068,16.3064336 67.7469351,15.183818 C67.747928,15.0496052 67.747928,14.5310663 67.7469351,14.3982011 C67.7412068,13.2479978 67.9106873,10.5264814 69.6047276,10.0997432 C70.0998029,9.97504334 70.9761518,9.90916568 72.1377686,9.90916568 C73.3505579,9.90916568 75.7002943,10.0817477 75.7002943,10.0817477 L75.7002943,6.30206641 L75.4545897,6.26353868 C75.4350372,6.26068478 73.4258656,5.95048106 71.3103009,5.95048106" fill="#404041"/>
    <mask id="b" fill="#fff">
      <path id="" d="M0 0.0594563735L111.968583 0.0594563735 111.968583 23.9410997 0 23.9410997z" transform="matrix(1, 0, 0, 1, 0, 0)"/>
    </mask>
    <path fill="#404041" mask="url(#b)" d="M107.539791 23.6239991L111.968583 23.6239991 111.968583.0594563735 107.539791.0594563735zM30.6318014 12.6832494L24.0849235 12.6832494C24.2547094 11.1537144 24.5833593 9.53983061 27.3162787 9.53983061 30.4785893 9.53983061 30.5523694 11.0559681 30.6236291 12.5220038 30.6263786 12.5759901 30.6288227 12.6300558 30.6318014 12.6832494M27.470331 5.84885822L27.2544898 5.84885822C25.4552784 5.84885822 22.9708132 6.23342205 21.3546773 8.0642027 19.9593471 9.61442854 19.1592987 11.9342577 19.1592987 14.4296813L19.1592987 15.0669744C19.1592987 15.4827726 19.2161995 17.6660106 20.3439049 19.7769497 21.5143814 21.9685116 23.4454194 23.2737772 25.9280516 23.5516367 26.3549223 23.5996774 26.8145587 23.6240149 27.2938239 23.6240149 30.2713787 23.6240149 33.2025726 22.7164728 33.3259213 22.6775487L33.5312225 22.613098 33.5312225 19.2621368C33.5312225 19.2621368 29.6663206 19.6971196 28.3899857 19.7381049 24.4895685 19.8643109 24.030925 17.8788645 23.983724 16.3169059L34.9273929 16.3169059 34.9273929 13.3242684C34.9273929 10.8634088 34.2987343 9.04079345 33.0075823 7.75320623 31.4530062 6.17903928 29.138556 5.84885822 27.470331 5.84885822M56.1652287 12.705391L49.6185799 12.705391C49.7881367 11.175856 50.1170921 9.56197217 52.849706 9.56197217 56.0122457 9.56197217 56.0860258 11.0781097 56.1572855 12.5441453 56.1598059 12.5981317 56.1624791 12.6521974 56.1652287 12.705391M53.0040638 5.87099978L52.7884517 5.87099978C50.9890112 5.87099978 48.5047751 6.2555636 46.88841 8.08634425 45.4930035 9.6365701 44.692726 11.9563992 44.692726 14.4518229L44.692726 15.0891159C44.692726 15.5049142 44.7499323 17.6881522 45.8773322 19.7990913 47.0481142 21.9906532 48.9790758 23.2959188 51.4614025 23.5737782 51.8883496 23.621819 52.3482915 23.6461565 52.8274803 23.6461565 55.8050351 23.6461565 58.736229 22.7386144 58.8598832 22.6996903L59.0649553 22.6352396 59.0649553 19.2842784C59.0649553 19.2842784 55.199977 19.7192612 53.9234129 19.7602464 50.0232249 19.8864525 49.5646578 17.901006 49.5171513 16.3390474L60.4611256 16.3390474 60.4611256 13.34641C60.4611256 10.8855503 59.8324671 9.06293501 58.5415442 7.77534778 56.986739 6.20118084 54.6719833 5.87099978 53.0040638 5.87099978M100.325722 12.705391L93.7785386 12.705391C93.948019 11.175856 94.2770508 9.56197217 97.0096647 9.56197217 100.172204 9.56197217 100.246214 11.0781097 100.317321 12.5441453 100.319994 12.5981317 100.322438 12.6521974 100.325722 12.705391M97.1640225 5.87099978L96.9484104 5.87099978C95.1489699 5.87099978 92.6647338 6.2555636 91.0485979 8.08634425 89.6532677 9.6365701 88.8529138 11.9563992 88.8529138 14.4518229L88.8529138 15.0891159C88.8529138 15.5049142 88.9101201 17.6881522 90.0378255 19.7990913 91.2086075 21.9906532 93.13934 23.2959188 95.6213612 23.5737782 96.0485374 23.621819 96.5082502 23.6461565 96.987439 23.6461565 99.9649938 23.6461565 102.896493 22.7386144 103.019766 22.6996903L103.225143 22.6352396 103.225143 19.2842784C103.225143 19.2842784 99.3599357 19.7192612 98.0833716 19.7602464 94.1834891 19.8864525 93.7246165 17.901006 93.6774155 16.3390474L104.621084 16.3390474 104.621084 13.34641C104.621084 10.8855503 103.992655 9.06293501 102.701427 7.77534778 101.146698 6.20118084 98.8318656 5.87099978 97.1640225 5.87099978M37.8460686 23.6461168L42.2750906 23.6461168 42.2750906.0594563735 37.8460686.0594563735z"/>
    <g mask="url(#b)">
      <path d="M5.975525,13.2257135 C7.09452344,13.6615684 10.1458583,14.8540254 10.8159895,15.135373 C11.2669953,15.324365 11.6030538,15.6157805 11.8153817,16.0017712 L11.898938,16.1536625 L16.6824253,16.1536625 L16.6420219,15.8092119 C16.2059096,12.0632225 13.7553558,11.1265072 11.3852268,10.2206299 C10.5898374,9.91684744 9.17113587,9.41146827 8.13515915,9.04260093 C7.56095737,8.83791245 7.10727839,8.67642894 6.98927603,8.630925 C5.6189211,8.09970212 4.49633295,7.54255626 4.64091448,6.09792494 C4.76327033,4.87439205 5.74036043,4.37202533 8.01257418,4.36370144 C10.3091522,4.36877505 14.9494327,4.77410896 14.996099,4.778152 L15.3084807,4.80581903 L15.3084807,1.00774589 L15.0910356,0.94860662 C15.0592627,0.940282727 10.6727827,0.0772932855 7.95261828,0.0597734741 L7.84026782,0.0594563735 C5.86348004,0.0594563735 4.22382005,0.414212735 2.96619747,1.11405389 C0.997811163,2.20931956 2.29130801e-05,4.10566077 2.29130801e-05,6.74932896 C2.29130801e-05,9.6565078 1.78701401,11.5932001 5.975525,13.2257135" fill="#C02C25"/>
      <path d="M11.8636366,18.2051055 C11.3334279,19.3611753 9.85423588,19.4709714 8.36343453,19.4709714 L8.18417787,19.4709714 C5.80518917,19.4709714 0.690531487,18.9236556 0.639282565,18.9180271 L0.320867132,18.8837802 L0.320867132,22.9294297 L0.539457914,22.9863493 C0.576042465,22.9961794 4.84161778,23.9410601 7.96153911,23.9410601 C13.2131406,23.9410601 16.2094077,21.9588639 16.6498735,18.2051055 L11.8636366,18.2051055 Z" fill="#404041"/>
    </g>
    <path fill="#C02C25" mask="url(#b)" d="M83.0956512 9.76486109L87.0337986 9.76486109 87.0337986 6.02235985 83.0956512 6.02235985 83.0956512 0.0594405184 78.6073607 0.0594405184 78.6073607 16.1722763 83.0956512 16.1722763z"/>
    <path d="M85.1640913,19.6900483 C83.7685319,19.6900483 83.1585094,19.2599012 83.1009975,18.2181463 L78.609041,18.2181463 C78.6467712,21.8719386 81.0266001,23.3889482 83.2566537,23.5870568 C83.4185728,23.6014849 83.5992807,23.6085404 83.7931253,23.6085404 C85.1635566,23.6085404 87.1780746,23.191553 87.1780746,23.191553 L87.1780746,19.5617018 C87.1780746,19.5617018 85.5698055,19.6900483 85.1640913,19.6900483" fill="#404041" mask="url(#b)"/>
  </g>
</svg>

<svg width="200" height="43" viewBox="0 0 200 43" xmlns="http://www.w3.org/2000/svg"><title>selectel_logo_web</title><g fill="none" fill-rule="evenodd" transform="matrix(1.7864 0 0 1.7864 0 -.047)"><path d="M71.31 5.95c-.728 0-1.393.037-1.977.11-2.415.296-4.273 1.654-5.373 3.924-1.003 2.07-1.08 4.202-1.08 4.806 0 .6.077 2.722 1.082 4.787 1.1 2.26 2.957 3.624 5.368 3.945.51.068 1.116.102 1.8.102 2.09 0 4.3-.323 4.322-.326l.248-.037V19.5s-2.42.168-3.638.168c-1.512 0-2.164-.1-2.446-.184-1.704-.51-1.875-3.178-1.87-4.3.002-.134.002-.653 0-.786-.005-1.15.165-3.872 1.86-4.298.494-.125 1.37-.19 2.532-.19 1.213 0 3.562.172 3.562.172v-3.78l-.245-.038c-.02-.003-2.03-.314-4.145-.314" fill="#404041"/><mask id="a" fill="#fff"><path d="M0 .06h111.97v23.88H0z"/></mask><path fill="#404041" mask="url(#a)" d="M107.54 23.624h4.43V.06h-4.43zm-76.908-10.94h-6.547c.17-1.53.498-3.144 3.23-3.144 3.164 0 3.237 1.516 3.31 2.982 0 .054.004.108.007.16M27.47 5.85h-.216c-1.8 0-4.283.383-5.9 2.214-1.395 1.55-2.195 3.87-2.195 6.366v.637c0 .416.056 2.6 1.184 4.71 1.17 2.192 3.1 3.497 5.584 3.775.427.048.887.072 1.366.072 2.977 0 5.91-.908 6.032-.946l.205-.065v-3.35s-3.864.434-5.14.475c-3.9.126-4.36-1.86-4.406-3.42h10.943v-2.994c0-2.46-.628-4.283-1.92-5.57-1.554-1.575-3.868-1.905-5.537-1.905m28.695 6.855H49.62c.168-1.53.497-3.143 3.23-3.143 3.162 0 3.236 1.516 3.307 2.982l.008.16m-3.16-6.833h-.217c-1.8 0-4.283.386-5.9 2.216-1.395 1.55-2.195 3.87-2.195 6.366v.637c0 .415.057 2.598 1.184 4.71 1.17 2.19 3.102 3.496 5.584 3.774.428.048.888.072 1.367.072 2.978 0 5.91-.907 6.033-.946l.205-.065v-3.35s-3.865.434-5.142.475c-3.9.126-4.358-1.86-4.406-3.42H60.46v-2.994c0-2.46-.628-4.283-1.918-5.57-1.555-1.575-3.87-1.905-5.538-1.905m47.322 6.835H93.78c.168-1.53.497-3.143 3.23-3.143 3.162 0 3.236 1.516 3.307 2.982.003.054.005.108.01.16m-3.163-6.833h-.216c-1.8 0-4.283.386-5.9 2.216-1.395 1.55-2.195 3.87-2.195 6.366v.637c0 .415.057 2.598 1.185 4.71 1.17 2.19 3.1 3.496 5.583 3.774.43.048.888.072 1.367.072 2.978 0 5.91-.907 6.033-.946l.205-.065v-3.35s-3.865.434-5.142.475c-3.9.126-4.358-1.86-4.406-3.42h10.944v-2.994c0-2.46-.627-4.283-1.92-5.57-1.553-1.575-3.868-1.905-5.536-1.905M37.846 23.647h4.43V.06h-4.43z"/><g mask="url(#a)"><path d="M5.976 13.226c1.12.436 4.17 1.628 4.84 1.91.45.188.787.48 1 .866l.083.152h4.782l-.04-.345c-.436-3.747-2.887-4.683-5.257-5.59-.795-.303-2.214-.81-3.25-1.177-.574-.205-1.028-.367-1.146-.412C5.62 8.1 4.495 7.544 4.64 6.1c.123-1.224 1.1-1.726 3.373-1.734 2.296.005 6.936.41 6.983.414l.312.028V1.008l-.217-.06C15.06.94 10.674.08 7.954.06H7.84c-1.977 0-3.616.354-4.874 1.054C.998 2.21 0 4.106 0 6.75c0 2.907 1.787 4.843 5.976 6.476" fill="#C02C25"/><path d="M11.864 18.205c-.53 1.156-2.01 1.266-3.5 1.266h-.18c-2.38 0-7.493-.546-7.545-.552l-.32-.034v4.045l.22.056c.036.01 4.302.955 7.422.955 5.25 0 8.247-1.98 8.688-5.735h-4.786z" fill="#404041"/></g><path fill="#C02C25" mask="url(#a)" d="M83.096 9.765h3.938V6.022h-3.938V.06h-4.49V16.17h4.49z"/><path d="M85.164 19.69c-1.395 0-2.005-.43-2.063-1.472h-4.49c.037 3.654 2.417 5.17 4.647 5.37.162.013.342.02.536.02 1.37 0 3.385-.416 3.385-.416v-3.63s-1.608.128-2.014.128" fill="#404041" mask="url(#a)"/></g></svg>
